assets/images/deposits-banner.svg

<svg width="269" height="152" viewBox="0 0 269 152" fill="none" xmlns="http://www.w3.org/2000/svg">
<path d="M245.453 18.8318C276.6 35.6433 277.097 103.056 245.453 137.548C224.206 160.707 57.3009 150.792 37.6305 143.592C24.8019 138.896 -0.000114441 132.735 3.9604e-10 103.056C0.00013443 68.1934 44.0748 57.8111 84.6684 45.3022C134.272 30.0169 154.798 -30.0984 245.453 18.8318Z" fill="#E6F2F8" fill-opacity="0.5"/>
<g filter="url(#filter0_d)">
<path d="M219.796 126H60.2041C59.3547 125.999 58.5402 125.657 57.9395 125.05C57.3388 124.442 57.001 123.618 57 122.759V34.2414C57.0009 33.382 57.3388 32.5581 57.9395 31.9505C58.5402 31.3428 59.3546 31.001 60.2041 31H219.796C220.645 31.001 221.46 31.3428 222.06 31.9505C222.661 32.5581 222.999 33.382 223 34.2414V122.759C222.999 123.618 222.661 124.442 222.06 125.05C221.46 125.657 220.645 125.999 219.796 126V126Z" fill="white"/>
</g>
<path d="M189 46H188V48H189V46Z" fill="#E5E5E5"/>
<path d="M189 117H188V114.174H189V117ZM189 111.348H188V108.522H189V111.348ZM189 105.696H188V102.87H189V105.696ZM189 100.043H188V97.2174H189V100.043ZM189 94.3913H188V91.5652H189V94.3913ZM189 88.7392H188V85.913H189V88.7392ZM189 83.087H188V80.2608H189V83.087ZM189 77.4348H188V74.6087H189V77.4348ZM189 71.7826H188V68.9565H189V71.7826ZM189 66.1305H188V63.3043H189V66.1305ZM189 60.4783H188V57.6522H189V60.4783ZM189 54.8261H188V52H189V54.8261Z" fill="#E5E5E5"/>
<g clip-path="url(#clip0)">
<path d="M164.5 117H163.5V114.174H164.5V117ZM164.5 111.348H163.5V108.522H164.5V111.348ZM164.5 105.696H163.5V102.87H164.5V105.696ZM164.5 100.043H163.5V97.2174H164.5V100.043ZM164.5 94.3913H163.5V91.5652H164.5V94.3913ZM164.5 88.7392H163.5V85.913H164.5V88.7392ZM164.5 83.087H163.5V80.2608H164.5V83.087ZM164.5 77.4348H163.5V74.6087H164.5V77.4348ZM164.5 71.7826H163.5V68.9565H164.5V71.7826ZM164.5 66.1305H163.5V63.3043H164.5V66.1305ZM164.5 60.4783H163.5V57.6522H164.5V60.4783ZM164.5 54.8261H163.5V52H164.5V54.8261Z" fill="#E5E5E5"/>
</g>
<g clip-path="url(#clip1)">
<path d="M138.5 117H137.5V114.174H138.5V117ZM138.5 111.348H137.5V108.522H138.5V111.348ZM138.5 105.696H137.5V102.87H138.5V105.696ZM138.5 100.043H137.5V97.2174H138.5V100.043ZM138.5 94.3913H137.5V91.5652H138.5V94.3913ZM138.5 88.7392H137.5V85.913H138.5V88.7392ZM138.5 83.087H137.5V80.2608H138.5V83.087ZM138.5 77.4348H137.5V74.6087H138.5V77.4348ZM138.5 71.7826H137.5V68.9565H138.5V71.7826ZM138.5 66.1305H137.5V63.3043H138.5V66.1305ZM138.5 60.4783H137.5V57.6522H138.5V60.4783ZM138.5 54.8261H137.5V52H138.5V54.8261Z" fill="#E5E5E5"/>
</g>
<g clip-path="url(#clip2)">
<path d="M113.5 117H112.5V114.174H113.5V117ZM113.5 111.348H112.5V108.522H113.5V111.348ZM113.5 105.696H112.5V102.87H113.5V105.696ZM113.5 100.043H112.5V97.2174H113.5V100.043ZM113.5 94.3913H112.5V91.5652H113.5V94.3913ZM113.5 88.7392H112.5V85.913H113.5V88.7392ZM113.5 83.087H112.5V80.2608H113.5V83.087ZM113.5 77.4348H112.5V74.6087H113.5V77.4348ZM113.5 71.7826H112.5V68.9565H113.5V71.7826ZM113.5 66.1305H112.5V63.3043H113.5V66.1305ZM113.5 60.4783H112.5V57.6522H113.5V60.4783ZM113.5 54.8261H112.5V52H113.5V54.8261Z" fill="#E5E5E5"/>
</g>
<g clip-path="url(#clip3)">
<path d="M87.5 117H86.5V114.174H87.5V117ZM87.5 111.348H86.5V108.522H87.5V111.348ZM87.5 105.696H86.5V102.87H87.5V105.696ZM87.5 100.043H86.5V97.2174H87.5V100.043ZM87.5 94.3913H86.5V91.5652H87.5V94.3913ZM87.5 88.7392H86.5V85.913H87.5V88.7392ZM87.5 83.087H86.5V80.2608H87.5V83.087ZM87.5 77.4348H86.5V74.6087H87.5V77.4348ZM87.5 71.7826H86.5V68.9565H87.5V71.7826ZM87.5 66.1305H86.5V63.3043H87.5V66.1305ZM87.5 60.4783H86.5V57.6522H87.5V60.4783ZM87.5 54.8261H86.5V52H87.5V54.8261Z" fill="#E5E5E5"/>
</g>
<path d="M213.524 121H61.4759C61.3497 121 61.2286 120.949 61.1394 120.858C61.0501 120.768 61 120.645 61 120.517V46.4834C61 46.3552 61.0501 46.2322 61.1394 46.1416C61.2286 46.0509 61.3497 46 61.4759 46C61.6021 46 61.7231 46.0509 61.8123 46.1416C61.9015 46.2322 61.9517 46.3552 61.9517 46.4834V120.033H213.524C213.65 120.033 213.771 120.084 213.861 120.175C213.95 120.265 214 120.388 214 120.517C214 120.645 213.95 120.768 213.861 120.858C213.771 120.949 213.65 121 213.524 121V121Z" fill="black"/>
<path d="M138.115 86L112.671 66.5004L87.5744 85.7337L87 84.9492L112.671 65.2759L137.994 84.6829L163.158 56.5065L163.259 56.4644L188.642 46L189 46.9096L163.718 57.332L138.115 86Z" fill="black"/>
<path d="M87 88.5C88.3807 88.5 89.5 87.3807 89.5 86C89.5 84.6193 88.3807 83.5 87 83.5C85.6193 83.5 84.5 84.6193 84.5 86C84.5 87.3807 85.6193 88.5 87 88.5Z" fill="#007CBA"/>
<path d="M113 68.5C114.381 68.5 115.5 67.3807 115.5 66C115.5 64.6193 114.381 63.5 113 63.5C111.619 63.5 110.5 64.6193 110.5 66C110.5 67.3807 111.619 68.5 113 68.5Z" fill="#007CBA"/>
<path d="M138 87.5C139.381 87.5 140.5 86.3807 140.5 85C140.5 83.6193 139.381 82.5 138 82.5C136.619 82.5 135.5 83.6193 135.5 85C135.5 86.3807 136.619 87.5 138 87.5Z" fill="#007CBA"/>
<path d="M164 59.5C165.381 59.5 166.5 58.3807 166.5 57C166.5 55.6193 165.381 54.5 164 54.5C162.619 54.5 161.5 55.6193 161.5 57C161.5 58.3807 162.619 59.5 164 59.5Z" fill="#007CBA"/>
<path d="M188.5 49C189.881 49 191 47.8807 191 46.5C191 45.1193 189.881 44 188.5 44C187.119 44 186 45.1193 186 46.5C186 47.8807 187.119 49 188.5 49Z" fill="#007CBA"/>
<g filter="url(#filter1_d)">
<rect x="179" y="90" width="56" height="50" fill="white"/>
</g>
<path d="M214 99H186V103H214V99Z" fill="#007CBA"/>
<path d="M224 108.5H186V112.5H224V108.5Z" fill="#007CBA"/>
<path d="M220 118.5H186V122.5H220V118.5Z" fill="#007CBA"/>
<path d="M228 128.5H186V132.5H228V128.5Z" fill="#007CBA"/>
<defs>
<filter id="filter0_d" x="51" y="27" width="178" height="107" filterUnits="userSpaceOnUse" color-interpolation-filters="sRGB">
<feFlood flood-opacity="0" result="BackgroundImageFix"/>
<feColorMatrix in="SourceAlpha" type="matrix" values="0 0 0 0 0 0 0 0 0 0 0 0 0 0 0 0 0 0 127 0"/>
<feOffset dy="2"/>
<feGaussianBlur stdDeviation="3"/>
<feColorMatrix type="matrix" values="0 0 0 0 0 0 0 0 0 0 0 0 0 0 0 0 0 0 0.05 0"/>
<feBlend mode="normal" in2="BackgroundImageFix" result="effect1_dropShadow"/>
<feBlend mode="normal" in="SourceGraphic" in2="effect1_dropShadow" result="shape"/>
</filter>
<filter id="filter1_d" x="173" y="86" width="68" height="62" filterUnits="userSpaceOnUse" color-interpolation-filters="sRGB">
<feFlood flood-opacity="0" result="BackgroundImageFix"/>
<feColorMatrix in="SourceAlpha" type="matrix" values="0 0 0 0 0 0 0 0 0 0 0 0 0 0 0 0 0 0 127 0"/>
<feOffset dy="2"/>
<feGaussianBlur stdDeviation="3"/>
<feColorMatrix type="matrix" values="0 0 0 0 0 0 0 0 0 0 0 0 0 0 0 0 0 0 0.05 0"/>
<feBlend mode="normal" in2="BackgroundImageFix" result="effect1_dropShadow"/>
<feBlend mode="normal" in="SourceGraphic" in2="effect1_dropShadow" result="shape"/>
</filter>
<clipPath id="clip0">
<rect width="1" height="53" fill="white" transform="translate(163.5 63.5)"/>
</clipPath>
<clipPath id="clip1">
<rect width="1" height="27" fill="white" transform="translate(137.5 89.5)"/>
</clipPath>
<clipPath id="clip2">
<rect width="1" height="45" fill="white" transform="translate(112.5 71.5)"/>
</clipPath>
<clipPath id="clip3">
<rect width="1" height="25" fill="white" transform="translate(86.5 91.5)"/>
</clipPath>
</defs>
</svg>

<svg xmlns="http://www.w3.org/2000/svg" width="269" height="152" fill="none"><path fill="#E6F2F8" fill-opacity=".5" d="M245.45 18.83c31.15 16.81 31.65 84.23 0 118.72-21.24 23.16-188.15 13.24-207.82 6.04C24.8 138.9 0 132.74 0 103.06 0 68.19 44.07 57.8 84.67 45.3c49.6-15.28 70.13-75.4 160.78-26.47Z"/><g filter="url(#a)"><path fill="#fff" d="M219.8 126H60.2a3.2 3.2 0 0 1-2.26-.95c-.6-.6-.94-1.43-.94-2.3v-88.5c0-.87.34-1.7.94-2.3.6-.6 1.41-.95 2.26-.95h159.6c.84 0 1.66.34 2.26.95.6.6.94 1.43.94 2.3v88.5c0 .87-.34 1.7-.94 2.3-.6.6-1.41.95-2.26.95Z"/></g><path fill="#E5E5E5" d="M189 46h-1v2h1v-2ZM189 117h-1v-2.83h1V117Zm0-5.65h-1v-2.83h1v2.83Zm0-5.65h-1v-2.83h1v2.83Zm0-5.66h-1v-2.82h1v2.82Zm0-5.65h-1v-2.82h1v2.82Zm0-5.65h-1V85.9h1v2.83Zm0-5.65h-1v-2.83h1v2.83Zm0-5.66h-1v-2.82h1v2.82Zm0-5.65h-1v-2.82h1v2.82Zm0-5.65h-1V63.3h1v2.83Zm0-5.65h-1v-2.83h1v2.83Zm0-5.65h-1V52h1v2.83Z"/><g clip-path="url(#b)"><path fill="#E5E5E5" d="M164.5 117h-1v-2.83h1V117Zm0-5.65h-1v-2.83h1v2.83Zm0-5.65h-1v-2.83h1v2.83Zm0-5.66h-1v-2.82h1v2.82Zm0-5.65h-1v-2.82h1v2.82Zm0-5.65h-1V85.9h1v2.83Zm0-5.65h-1v-2.83h1v2.83Zm0-5.66h-1v-2.82h1v2.82Zm0-5.65h-1v-2.82h1v2.82Zm0-5.65h-1V63.3h1v2.83Zm0-5.65h-1v-2.83h1v2.83Zm0-5.65h-1V52h1v2.83Z"/></g><g clip-path="url(#c)"><path fill="#E5E5E5" d="M138.5 117h-1v-2.83h1V117Zm0-5.65h-1v-2.83h1v2.83Zm0-5.65h-1v-2.83h1v2.83Zm0-5.66h-1v-2.82h1v2.82Zm0-5.65h-1v-2.82h1v2.82Zm0-5.65h-1V85.9h1v2.83Zm0-5.65h-1v-2.83h1v2.83Zm0-5.66h-1v-2.82h1v2.82Zm0-5.65h-1v-2.82h1v2.82Zm0-5.65h-1V63.3h1v2.83Zm0-5.65h-1v-2.83h1v2.83Zm0-5.65h-1V52h1v2.83Z"/></g><g clip-path="url(#d)"><path fill="#E5E5E5" d="M113.5 117h-1v-2.83h1V117Zm0-5.65h-1v-2.83h1v2.83Zm0-5.65h-1v-2.83h1v2.83Zm0-5.66h-1v-2.82h1v2.82Zm0-5.65h-1v-2.82h1v2.82Zm0-5.65h-1V85.9h1v2.83Zm0-5.65h-1v-2.83h1v2.83Zm0-5.66h-1v-2.82h1v2.82Zm0-5.65h-1v-2.82h1v2.82Zm0-5.65h-1V63.3h1v2.83Zm0-5.65h-1v-2.83h1v2.83Zm0-5.65h-1V52h1v2.83Z"/></g><g clip-path="url(#e)"><path fill="#E5E5E5" d="M87.5 117h-1v-2.83h1V117Zm0-5.65h-1v-2.83h1v2.83Zm0-5.65h-1v-2.83h1v2.83Zm0-5.66h-1v-2.82h1v2.82Zm0-5.65h-1v-2.82h1v2.82Zm0-5.65h-1V85.9h1v2.83Zm0-5.65h-1v-2.83h1v2.83Zm0-5.66h-1v-2.82h1v2.82Zm0-5.65h-1v-2.82h1v2.82Zm0-5.65h-1V63.3h1v2.83Zm0-5.65h-1v-2.83h1v2.83Zm0-5.65h-1V52h1v2.83Z"/></g><path fill="#000" d="M213.52 121H61.48a.48.48 0 0 1-.48-.48V46.48c0-.12.05-.25.14-.34a.47.47 0 0 1 .67 0c.1.1.14.22.14.34v73.55h151.57c.13 0 .25.05.34.14a.49.49 0 0 1-.34.83Z"/><path fill="#000" d="m138.12 86-25.45-19.5-25.1 19.23-.57-.78 25.67-19.67L138 84.68l25.17-28.17.1-.05L188.64 46l.36.91-25.28 10.42L138.12 86Z"/><path fill="#007CBA" d="M87 88.5a2.5 2.5 0 1 0 0-5 2.5 2.5 0 0 0 0 5ZM113 68.5a2.5 2.5 0 1 0 0-5 2.5 2.5 0 0 0 0 5ZM138 87.5a2.5 2.5 0 1 0 0-5 2.5 2.5 0 0 0 0 5ZM164 59.5a2.5 2.5 0 1 0 0-5 2.5 2.5 0 0 0 0 5ZM188.5 49a2.5 2.5 0 1 0 0-5 2.5 2.5 0 0 0 0 5Z"/><g filter="url(#f)"><path fill="#fff" d="M179 90h56v50h-56z"/></g><path fill="#007CBA" d="M214 99h-28v4h28v-4ZM224 108.5h-38v4h38v-4ZM220 118.5h-34v4h34v-4ZM228 128.5h-42v4h42v-4Z"/><defs><clipPath id="b"><path fill="#fff" d="M163.5 63.5h1v53h-1z"/></clipPath><clipPath id="c"><path fill="#fff" d="M137.5 89.5h1v27h-1z"/></clipPath><clipPath id="d"><path fill="#fff" d="M112.5 71.5h1v45h-1z"/></clipPath><clipPath id="e"><path fill="#fff" d="M86.5 91.5h1v25h-1z"/></clipPath><filter id="a" width="178" height="107" x="51" y="27" color-interpolation-filters="sRGB" filterUnits="userSpaceOnUse"><feFlood flood-opacity="0" result="BackgroundImageFix"/><feColorMatrix in="SourceAlpha" values="0 0 0 0 0 0 0 0 0 0 0 0 0 0 0 0 0 0 127 0"/><feOffset dy="2"/><feGaussianBlur stdDeviation="3"/><feColorMatrix values="0 0 0 0 0 0 0 0 0 0 0 0 0 0 0 0 0 0 0.05 0"/><feBlend in2="BackgroundImageFix" result="effect1_dropShadow"/><feBlend in="SourceGraphic" in2="effect1_dropShadow" result="shape"/></filter><filter id="f" width="68" height="62" x="173" y="86" color-interpolation-filters="sRGB" filterUnits="userSpaceOnUse"><feFlood flood-opacity="0" result="BackgroundImageFix"/><feColorMatrix in="SourceAlpha" values="0 0 0 0 0 0 0 0 0 0 0 0 0 0 0 0 0 0 127 0"/><feOffset dy="2"/><feGaussianBlur stdDeviation="3"/><feColorMatrix values="0 0 0 0 0 0 0 0 0 0 0 0 0 0 0 0 0 0 0.05 0"/><feBlend in2="BackgroundImageFix" result="effect1_dropShadow"/><feBlend in="SourceGraphic" in2="effect1_dropShadow" result="shape"/></filter></defs></svg>
